X:288
T:Polska efter Brynte Olsson (Kull)
S:efter Brynte Kull
B:EÖ, nr 288
R:Polska
O:Boda, Skillingmarks sn, Värmland
Z:Nils L
L:1/8
M:3/4
%%tuplets 0 0 1
K:D
d>(f a>)(f a>)(f | d>)g b>(g b>)(g | b>)a g>f e>d | cB/c/ d>A F>A |
d>f a>f a>f | d>g b>g b>g | b>a g>f e>d | PcB/c/ d3!fine!z ::
{/d}(3cBc (3ece d z/g/ | (3fef (3geg fz | (3a^ga !tenuto!d'2 a2- | a>g (gf) f2 !D.C.! :|

